X:184
T:Untitled. HA.183
M:3/4
L:1/8
Q:3/4=50
S:Henry Atkinson's original MS,Hartburn,N'umberland,1694.
O:England
A:Hartburn,Northumberland
H:1/8
Z:vmp.Neil Brookes, Jan.2004
K:F
ded2c2|d4e2|fedefg|a4a2|
agf2a2|gfe2f2|d2gfed|^c3BA2||
f2F2f2|e2E2e2|d2D2d2|cdcBAG|
FEFGAB|cdcBAG|ABc2C2|F4fg|
a2A2a2|g2G2g2|f2F2f2|e3dc2|
dcdefg|a3ba2|g2e4|d6|]

